;FLAVOR:Marlin
;TIME:8210
;Filament used: 6.51692m
;Layer height: 0.15
;MINX:44.475
;MINY:87.223
;MINZ:0.2
;MAXX:175.524
;MAXY:132.3
;MAXZ:11.45
;Generated with Cura_SteamEngine 5.4.0
M140 S57
M105
M190 S57
M104 S205
M105
M109 S205
M82 ;absolute extrusion mode
; -- START GCODE --
G21        ;metric values
G90        ;absolute positioning
M82        ;set extruder to absolute mode
M107       ;start with the fan off
G28 X0 Y0  ;move X/Y to min endstops
G28 Z0     ;move Z to min endstops
G1 Z1 F1000             ;move up slightly
G1 Y60.0 Z0 E9.0 F1000.0;intro line
G1 Y100.0 E21.5 F1000.0 ;continue line
G92 E0                  ;zero the extruded length again
G1 F80
;Put printing message on LCD screen
M117 Printing...
; -- end of START GCODE --
G92 E0
G92 E0
G1 F2700 E-5
;LAYER_COUNT:76
;LAYER:0
M107
G0 F3600 X46.866 Y102.9 Z0.2
;TYPE:SUPPORT
G1 F2700 E0
G1 F2100 X67.945 Y102.893 E0.70109
G1 X68.698 Y102.828 E0.72623
G1 X69.311 Y102.705 E0.74702
G1 X70.024 Y102.44 E0.77232
G1 X70.678 Y102.048 E0.79768
G1 X71.249 Y101.494 E0.82414
G1 X71.611 Y100.964 E0.84549
G1 X71.851 Y100.458 E0.86412
G1 X72.047 Y99.857 E0.88514
G1 X72.17 Y99.218 E0.90679
G1 X72.239 Y98.478 E0.93151
G1 X72.239 Y89.758 E1.22153
G1 X125.933 Y89.734 E3.0074
G1 X126.409 Y89.696 E3.02329
G1 X127.323 Y89.508 E3.05432
G1 X128.059 Y89.22 E3.08061
G1 X128.599 Y88.87 E3.10201
G1 X129.155 Y88.424 E3.12572
G1 X160.35 Y88.425 E4.16327
G1 X161.93 Y88.871 E4.21787
G1 X163.423 Y89.424 E4.27083
G1 X164.897 Y90.12 E4.32504
G1 X166.276 Y90.911 E4.37792
G1 X167.554 Y91.786 E4.42943
G1 X168.506 Y92.541 E4.46985
G1 X169.361 Y93.304 E4.50796
G1 X170.235 Y94.179 E4.5491
G1 X170.246 Y94.208 E4.55013
G1 X170.929 Y94.972 E4.58421
G1 X170.941 Y95.01 E4.58554
G1 X171.471 Y95.66 E4.61343
G1 X171.48 Y98.984 E4.72399
G1 X171.727 Y100.206 E4.76545
G1 X171.726 Y118.101 E5.36065
G1 X142.198 Y118.113 E6.34275
G1 X140.102 Y118.184 E6.4125
G1 X138.313 Y118.465 E6.47274
G1 X136.563 Y118.906 E6.53276
G1 X134.863 Y119.522 E6.5929
G1 X133.177 Y120.357 E6.65548
G1 X131.742 Y121.22 E6.71117
G1 X130.42 Y122.263 E6.76718
G1 X130.405 Y122.059 E6.77398
G1 X130.251 Y121.879 E6.78186
G1 X129.633 Y121.735 E6.80297
G1 X129.152 Y121.508 E6.82066
G1 X128.855 Y121.404 E6.83112
G1 X128.848 Y120.513 E6.86076
G1 X128.686 Y120.403 E6.86727
G1 X49.99 Y120.4 E9.48471
G1 X49.864 Y120.528 E9.49069
G1 X49.866 Y121.143 E9.51114
G1 X49.738 Y121.22 E9.51611
G1 X49.705 Y125.099 E9.64513
G1 X48.987 Y125.1 E9.66901
G1 X48.98 Y124.932 E9.6746
G1 X48.768 Y124.095 E9.70332
G1 X48.404 Y123.382 E9.72995
G1 X47.933 Y122.828 E9.75413
G1 X47.931 Y119.394 E9.86835
G1 X47.839 Y118.495 E9.8984
G1 X47.713 Y117.906 E9.91844
G1 X47.481 Y117.315 E9.93955
G1 X47.161 Y116.794 E9.95989
G1 X46.863 Y116.431 E9.97551
G1 X46.866 Y102.9 E10.42555
G1 F2700 E5.42555
G0 F3600 X48 Y103.099
G1 F2700 E10.42555
G1 F2100 X48 Y118.29 E10.93081
G1 F2700 E5.93081
G0 F3600 X47.52 Y117
G1 F2700 E10.93081
G1 F2100 X171.526 Y117 E15.05527
G1 F2700 E10.05527
G0 F3600 X171 Y117.902
G1 F2700 E15.05527
G1 F2100 X171 Y95.399 E15.80372
G0 F3600 X171.272 Y96
G1 F2100 X72.439 Y96 E19.09092
G1 F2700 E14.09092
G0 F3600 X72.439 Y93
G1 F2700 E19.09092
G1 F2100 X168.722 Y93 E22.2933
G0 F3600 X168 Y92.396
G1 F2100 X168 Y117.903 E23.14167
G1 F2700 E18.14167
G0 F3600 X165 Y117.904
G1 F2700 E23.14167
G1 F2100 X165 Y90.41 E24.05612
G0 F3600 X164.177 Y90
G1 F2100 X72.439 Y90 E27.10734
G1 F2700 E22.10734
G0 F3600 X75 Y89.956
G1 F2700 E27.10734
G1 F2100 X75 Y120.2 E28.11326
G1 F2700 E23.11326
G0 F3600 X72 Y120.2
G1 F2700 E28.11326
G1 F2100 X72 Y100.606 E28.76496
G1 F2700 E23.76496
G0 F3600 X72.392 Y99
G1 F2700 E28.76496
G1 F2100 X171.283 Y99 E32.05409
G1 F2700 E27.05409
G0 F3600 X171.526 Y102
G1 F2700 E32.05409
G1 F2100 X71.021 Y102 E35.3969
G1 F2700 E30.3969
G0 F3600 X69 Y102.97
G1 F2700 E35.3969
G1 F2100 X69 Y120.2 E35.96997
G1 F2700 E30.96997
G0 F3600 X66 Y120.2
G1 F2700 E35.96997
G1 F2100 X66 Y103.092 E36.53898
G1 F2700 E31.53898
G0 F3600 X63 Y103.093
G1 F2700 E36.53898
G1 F2100 X63 Y120.2 E37.10797
G1 F2700 E32.10797
G0 F3600 X60 Y120.2
G1 F2700 E37.10797
G1 F2100 X60 Y103.095 E37.67688
G1 F2700 E32.67688
G0 F3600 X57 Y103.096
G1 F2700 E37.67688
G1 F2100 X57 Y120.2 E38.24576
G1 F2700 E33.24576
G0 F3600 X54 Y120.2
G1 F2700 E38.24576
G1 F2100 X54 Y103.097 E38.81461
G1 F2700 E33.81461
G0 F3600 X51 Y103.098
G1 F2700 E38.81461
G1 F2100 X51 Y120.2 E39.38342
G1 F2700 E34.38342
G0 F3600 X48.128 Y120
G1 F2700 E39.38342
G1 F2100 X133.446 Y120 E42.22111
G1 F2700 E37.22111
G0 F3600 X132 Y120.832
G1 F2700 E42.22111
G1 F2100 X132 Y88.625 E43.29232
G1 F2700 E38.29232
G0 F3600 X135 Y88.625
G1 F2700 E43.29232
G1 F2100 X135 Y119.26 E44.31125
G1 F2700 E39.31125
G0 F3600 X138 Y118.339
G1 F2700 E44.31125
G1 F2100 X138 Y88.625 E45.29954
G1 F2700 E40.29954
G0 F3600 X141 Y88.625
G1 F2700 E45.29954
G1 F2100 X141 Y117.954 E46.27502
G1 F2700 E41.27502
G0 F3600 X144 Y117.913
G1 F2700 E46.27502
G1 F2100 X144 Y88.625 E47.24915
G1 F2700 E42.24915
G0 F3600 X147 Y88.625
G1 F2700 E47.24915
G1 F2100 X147 Y117.912 E48.22324
G1 F2700 E43.22324
G0 F3600 X150 Y117.91
G1 F2700 E48.22324
G1 F2100 X150 Y88.625 E49.19726
G1 F2700 E44.19726
G0 F3600 X153 Y88.625
G1 F2700 E49.19726
G1 F2100 X153 Y117.909 E50.17125
G1 F2700 E45.17125
G0 F3600 X156 Y117.908
G1 F2700 E50.17125
G1 F2100 X156 Y88.625 E51.14521
G1 F2700 E46.14521
G0 F3600 X159 Y88.625
G1 F2700 E51.14521
G1 F2100 X159 Y117.907 E52.11913
G1 F2700 E47.11913
G0 F3600 X162 Y117.905
G1 F2700 E52.11913
G1 F2100 X162 Y89.11 E53.07685
G1 F2700 E48.07685
G0 F3600 X171.526 Y105
G1 F2700 E53.07685
G1 F2100 X47.065 Y105 E57.21644
G1 F2700 E52.21644
G0 F3600 X47.064 Y108
G1 F2700 E57.21644
G1 F2100 X171.526 Y108 E61.35607
G1 F2700 E56.35607
G0 F3600 X171.526 Y111
G1 F2700 E61.35607
G1 F2100 X47.064 Y111 E65.49569
G1 F2700 E60.49569
G0 F3600 X47.063 Y114
G1 F2700 E65.49569
G1 F2100 X171.526 Y114 E69.63535
G1 F2700 E64.63535
G0 F3600 X129 Y120.411
G1 F2700 E69.63535
G1 F2100 X129 Y88.803 E70.68663
G1 F2700 E65.68663
G0 F3600 X126 Y89.929
G1 F2700 E70.68663
G1 F2100 X126 Y120.202 E71.69352
G1 F2700 E66.69352
G0 F3600 X123 Y120.202
G1 F2700 E71.69352
G1 F2100 X123 Y89.935 E72.7002
G1 F2700 E67.7002
G0 F3600 X120 Y89.936
G1 F2700 E72.7002
G1 F2100 X120 Y120.202 E73.70685
G1 F2700 E68.70685
G0 F3600 X117 Y120.202
G1 F2700 E73.70685
G1 F2100 X117 Y89.938 E74.71344
G1 F2700 E69.71344
G0 F3600 X114 Y89.939
G1 F2700 E74.71344
G1 F2100 X114 Y120.202 E75.71999
G1 F2700 E70.71999
G0 F3600 X111 Y120.202
G1 F2700 E75.71999
G1 F2100 X111 Y89.94 E76.72651
G1 F2700 E71.72651
G0 F3600 X108 Y89.942
G1 F2700 E76.72651
G1 F2100 X108 Y120.202 E77.73296
G1 F2700 E72.73296
G0 F3600 X105 Y120.202
G1 F2700 E77.73296
G1 F2100 X105 Y89.943 E78.73938
G1 F2700 E73.73938
G0 F3600 X102 Y89.944
G1 F2700 E78.73938
G1 F2100 X102 Y120.201 E79.74573
G1 F2700 E74.74573
G0 F3600 X99 Y120.201
G1 F2700 E79.74573
G1 F2100 X99 Y89.946 E80.75201
G1 F2700 E75.75201
G0 F3600 X96 Y89.947
G1 F2700 E80.75201
G1 F2100 X96 Y120.201 E81.75827
G1 F2700 E76.75827
G0 F3600 X93 Y120.201
G1 F2700 E81.75827
G1 F2100 X93 Y89.948 E82.76449
G1 F2700 E77.76449
G0 F3600 X90 Y89.95
G1 F2700 E82.76449
G1 F2100 X90 Y120.201 E83.77064
G1 F2700 E78.77064
G0 F3600 X87 Y120.201
G1 F2700 E83.77064
G1 F2100 X87 Y89.951 E84.77676
G1 F2700 E79.77676
G0 F3600 X84 Y89.952
G1 F2700 E84.77676
G1 F2100 X84 Y120.201 E85.78284
G1 F2700 E80.78284
G0 F3600 X81 Y120.201
G1 F2700 E85.78284
G1 F2100 X81 Y89.954 E86.78886
G1 F2700 E81.78886
G0 F3600 X78 Y89.955
G1 F2700 E86.78886
G1 F2100 X78 Y120.201 E87.79485
G1 F2700 E82.79485
G0 F3600 X51.317 Y121.847
G0 X49.521 Y123
G1 F2700 E87.79485
G1 F2100 X48.344 Y123 E87.834
G1 F2700 E82.834
;MESH:Coque2.stl
G0 F3600 X51.309 Y122.988
G0 X52.374 Y122.984
G0 X105.939 Y124.9
G0 X106.039 Y124.9
;TYPE:WALL-INNER
G1 F2700 E87.834
G1 F2100 X106.368 Y124.617 E87.84843
G1 X106.707 Y124.5 E87.86036
G1 X125.777 Y124.5 E88.49463
G1 X125.769 Y123.5 E88.52789
G1 X52.976 Y123.5 E90.94899
G1 X52.98 Y124.5 E90.98225
G1 X62.839 Y124.5 E91.31017
G1 X63.31 Y124.617 E91.32631
G1 X63.639 Y124.9 E91.34074
G1 X63.8 Y125.219 E91.35263
G1 X63.839 Y125.5 E91.36206
G1 X63.839 Y131.5 E91.56162
G1 X105.839 Y131.5 E92.95855
G1 X105.839 Y125.5 E93.15811
G1 X105.878 Y125.219 E93.16754
G1 X106.039 Y124.9 E93.17943
G0 F3600 X106.239 Y125.376
G1 F2100 X106.359 Y125.14 E93.18824
G1 X106.556 Y124.97 E93.19689
G1 X106.758 Y124.9 E93.204
G1 X126.18 Y124.9 E93.84998
G1 X126.165 Y123.1 E93.90985
G1 X52.575 Y123.1 E96.35746
G1 X52.581 Y124.9 E96.41733
G1 X62.839 Y124.9 E96.75851
G1 X63.122 Y124.97 E96.76821
G1 X63.319 Y125.14 E96.77686
G1 X63.439 Y125.376 E96.78567
G1 X63.439 Y131.9 E97.00266
G1 X106.239 Y131.9 E98.42619
G1 X106.239 Y125.376 E98.64318
G0 F3600 X106.679 Y125.38
;TYPE:WALL-OUTER
G1 F2100 X106.804 Y125.302 E98.64808
G1 X126.583 Y125.3 E99.30594
G1 X126.562 Y122.7 E99.39241
G1 X52.173 Y122.7 E101.8666
G1 X52.183 Y125.3 E101.95308
G1 X62.916 Y125.3 E102.31006
G1 X63.039 Y125.456 E102.31667
G1 X63.039 Y132.3 E102.5443
G1 X106.639 Y132.3 E103.99444
G1 X106.639 Y125.456 E104.22207
G1 X106.679 Y125.38 E104.22493
G0 F3600 X106.804 Y125.302
G0 X106.857 Y125.302
G0 X106.857 Y124.6
G0 X53.478 Y124
;TYPE:SKIN
G1 F1304.3 X62.919 Y124.005 E104.73049
G0 F3600 X105.526 Y125.076
G1 F2100 X105.46 Y125.474 E104.7439
G1 X105.459 Y131.12 E104.93169
G1 X64.219 Y131.12 E106.30334
G1 X64.218 Y125.469 E106.49129
G1 X64.172 Y125.139 E106.50237
G1 X63.947 Y124.67 E106.51967
G1 X63.524 Y124.305 E106.53826
G1 F1603.1 X62.919 Y124.005 E106.56768
G1 X63.489 Y123.881 E106.5931
G1 F2100 X106.153 Y123.88 E108.01211
G1 F1609.2 X106.627 Y124.002 E108.03335
G1 X106.152 Y124.305 E108.05781
G1 F2100 X105.763 Y124.641 E108.0749
G1 X105.526 Y125.076 E108.09138
G0 F3600 X125.272 Y124
G1 F1306.4 X106.627 Y124.002 E109.08825
G0 F3600 X106.036 Y124.138
G1 F2100 X105.976 Y124.078 E109.09107
G0 F3600 X105.732 Y124.4
G1 F2100 X105.411 Y124.078 E109.10619
G0 F3600 X104.845 Y124.078
G1 F2100 X105.495 Y124.728 E109.13676
G0 F3600 X105.322 Y125.121
G1 F2100 X104.279 Y124.078 E109.18582
G0 F3600 X103.714 Y124.078
G1 F2100 X105.262 Y125.626 E109.25864
G0 F3600 X105.262 Y126.192
G1 F2100 X103.148 Y124.078 E109.35807
G0 F3600 X102.582 Y124.078
G1 F2100 X105.261 Y126.757 E109.48409
G0 F3600 X105.261 Y127.323
G1 F2100 X102.017 Y124.078 E109.6367
G0 F3600 X101.451 Y124.078
G1 F2100 X105.26 Y127.888 E109.81588
G0 F3600 X105.26 Y128.453
G1 F2100 X100.885 Y124.078 E110.02167
G0 F3600 X100.32 Y124.078
G1 F2100 X105.259 Y129.018 E110.25401
G0 F3600 X105.259 Y129.584
G1 F2100 X99.754 Y124.078 E110.51297
G0 F3600 X99.188 Y124.078
G1 F2100 X105.259 Y130.149 E110.79853
G0 F3600 X105.259 Y130.715
G1 F2100 X98.623 Y124.078 E111.11069
G0 F3600 X98.057 Y124.078
G1 F2100 X104.897 Y130.919 E111.43245
G0 F3600 X104.332 Y130.919
G1 F2100 X97.491 Y124.078 E111.75423
G0 F3600 X96.925 Y124.078
G1 F2100 X103.766 Y130.919 E112.07601
G0 F3600 X103.2 Y130.919
G1 F2100 X96.36 Y124.078 E112.39776
G0 F3600 X95.794 Y124.078
G1 F2100 X102.635 Y130.919 E112.71954
G0 F3600 X102.069 Y130.919
G1 F2100 X95.228 Y124.078 E113.04132
G0 F3600 X94.663 Y124.078
G1 F2100 X101.503 Y130.919 E113.36308
G0 F3600 X100.938 Y130.919
G1 F2100 X94.097 Y124.078 E113.68486
G0 F3600 X93.531 Y124.078
G1 F2100 X100.372 Y130.919 E114.00664
G0 F3600 X99.806 Y130.919
G1 F2100 X92.966 Y124.078 E114.3284
G0 F3600 X92.4 Y124.078
G1 F2100 X99.241 Y130.919 E114.65018
G0 F3600 X98.675 Y130.919
G1 F2100 X91.835 Y124.079 E114.97191
G0 F3600 X91.269 Y124.079
G1 F2100 X98.109 Y130.919 E115.29364
G0 F3600 X97.543 Y130.919
G1 F2100 X90.704 Y124.079 E115.61535
G0 F3600 X90.138 Y124.079
G1 F2100 X96.978 Y130.919 E115.93708
G0 F3600 X96.412 Y130.919
G1 F2100 X89.572 Y124.079 E116.25881
G0 F3600 X89.007 Y124.079
G1 F2100 X95.846 Y130.919 E116.58052
G0 F3600 X95.281 Y130.919
G1 F2100 X88.441 Y124.079 E116.90226
G0 F3600 X87.875 Y124.079
G1 F2100 X94.715 Y130.919 E117.22399
G0 F3600 X94.149 Y130.919
G1 F2100 X87.31 Y124.079 E117.5457
G0 F3600 X86.744 Y124.079
G1 F2100 X93.584 Y130.919 E117.86743
G0 F3600 X93.018 Y130.919
G1 F2100 X86.178 Y124.079 E118.18916
G0 F3600 X85.612 Y124.079
G1 F2100 X92.452 Y130.919 E118.5109
G0 F3600 X91.887 Y130.919
G1 F2100 X85.047 Y124.079 E118.83263
G0 F3600 X84.481 Y124.079
G1 F2100 X91.321 Y130.919 E119.15436
G0 F3600 X90.755 Y130.919
G1 F2100 X83.915 Y124.079 E119.47609
G0 F3600 X83.35 Y124.079
G1 F2100 X90.19 Y130.919 E119.79783
G0 F3600 X89.624 Y130.919
G1 F2100 X82.784 Y124.079 E120.11956
G0 F3600 X82.218 Y124.079
G1 F2100 X89.058 Y130.919 E120.44129
G0 F3600 X88.492 Y130.919
G1 F2100 X81.653 Y124.079 E120.763
G0 F3600 X81.087 Y124.079
G1 F2100 X87.927 Y130.919 E121.08473
G0 F3600 X87.361 Y130.919
G1 F2100 X80.521 Y124.079 E121.40647
G0 F3600 X79.956 Y124.079
G1 F2100 X86.795 Y130.919 E121.72818
G0 F3600 X86.23 Y130.919
G1 F2100 X79.39 Y124.079 E122.04991
G0 F3600 X78.824 Y124.079
G1 F2100 X85.664 Y130.919 E122.37164
G0 F3600 X85.098 Y130.919
G1 F2100 X78.259 Y124.079 E122.69335
G0 F3600 X77.694 Y124.08
G1 F2100 X84.533 Y130.919 E123.01504
G0 F3600 X83.967 Y130.919
G1 F2100 X77.128 Y124.08 E123.33672
G0 F3600 X76.562 Y124.08
G1 F2100 X83.401 Y130.919 E123.65841
G0 F3600 X82.836 Y130.919
G1 F2100 X75.997 Y124.08 E123.98009
G0 F3600 X75.431 Y124.08
G1 F2100 X82.27 Y130.919 E124.30178
G0 F3600 X81.704 Y130.919
G1 F2100 X74.865 Y124.08 E124.62346
G0 F3600 X74.299 Y124.08
G1 F2100 X81.139 Y130.919 E124.94517
G0 F3600 X80.573 Y130.919
G1 F2100 X73.734 Y124.08 E125.26686
G0 F3600 X73.168 Y124.08
G1 F2100 X80.007 Y130.919 E125.58854
G0 F3600 X79.442 Y130.919
G1 F2100 X72.602 Y124.08 E125.91025
G0 F3600 X72.037 Y124.08
G1 F2100 X78.876 Y130.919 E126.23194
G0 F3600 X78.31 Y130.919
G1 F2100 X71.471 Y124.08 E126.55362
G0 F3600 X70.905 Y124.08
G1 F2100 X77.744 Y130.919 E126.87531
G0 F3600 X77.179 Y130.919
G1 F2100 X70.34 Y124.08 E127.197
G0 F3600 X69.774 Y124.08
G1 F2100 X76.613 Y130.919 E127.51868
G0 F3600 X76.047 Y130.919
G1 F2100 X69.208 Y124.08 E127.84037
G0 F3600 X68.643 Y124.08
G1 F2100 X75.482 Y130.919 E128.16205
G0 F3600 X74.916 Y130.919
G1 F2100 X68.077 Y124.08 E128.48374
G0 F3600 X67.511 Y124.08
G1 F2100 X74.35 Y130.919 E128.80542
G0 F3600 X73.785 Y130.919
G1 F2100 X66.946 Y124.08 E129.12711
G0 F3600 X66.38 Y124.08
G1 F2100 X73.219 Y130.919 E129.44879
G0 F3600 X72.653 Y130.919
G1 F2100 X65.814 Y124.08 E129.77048
G0 F3600 X65.248 Y124.08
G1 F2100 X72.088 Y130.919 E130.09219
G0 F3600 X71.522 Y130.919
G1 F2100 X64.683 Y124.08 E130.41387
G0 F3600 X64.117 Y124.08
G1 F2100 X70.956 Y130.919 E130.73556
G0 F3600 X70.391 Y130.919
G1 F2100 X64.203 Y124.731 E131.02662
G1 X64.133 Y124.661
G0 F3600 X64.416 Y125.51
G1 F2100 X69.825 Y130.919 E131.28105
G0 F3600 X69.259 Y130.919
G1 F2100 X64.416 Y126.075 E131.50887
G0 F3600 X64.416 Y126.641
G1 F2100 X68.694 Y130.919 E131.71009
G0 F3600 X68.128 Y130.919
G1 F2100 X64.416 Y127.207 E131.8847
G0 F3600 X64.416 Y127.773
G1 F2100 X67.562 Y130.919 E132.03267
G0 F3600 X66.996 Y130.919
G1 F2100 X64.417 Y128.339 E132.15401
G0 F3600 X64.417 Y128.905
G1 F2100 X66.431 Y130.919 E132.24874
G0 F3600 X65.865 Y130.919
G1 F2100 X64.417 Y129.471 E132.31685
G0 F3600 X64.418 Y130.037
G1 F2100 X65.299 Y130.919 E132.35831
G0 F3600 X64.734 Y130.919
G1 F2100 X64.418 Y130.603 E132.37317
G1 F2700 E127.37317
;MESH:NONMESH
G0 F300 X64.418 Y130.603 Z0.35
G0 F3600 X63.267 Y125.072
G0 X52.387 Y122.914
G0 X51.309 Y122.918
G0 X46 Y117.258
;TIME_ELAPSED:175.475741
;LAYER:1
M106 S255
;TYPE:SUPPORT
G1 F2700 E132.37317
G1 F3150 X46 Y101.699 E132.7613
